X:7714
T:Tub Hornpipe. WM047
O:england
M:C
L:1/8
S:Wm.Mittell,1799
R:Hornpipe
A:Kent
K:G
(3d/e/f/|g2d2dedc|B2d4ef|gfed cBAG|F2D4EF|
G2G2GABc|d2B2e2dc|BdBG AcAF|G2G4:|]
